X:1
T:Title
%%score { ( 1 2 ) | ( 3 4 ) }
L:1/8
Q:1/4=114
M:3/4
K:Ab
V:1 bass nm="Grand Piano"
V:2 bass 
V:3 treble 
V:4 treble 
V:1
 E2 z2 z2 | z6 |[M:6/4][K:treble] c4 B2 [CA]6 | z2 G2 A2 [Ec]2 B2 F2 | [FA]4 [B,=EG]2 [A,F]6 | %5
w: Robert~Harkness|||||
 .[E,DE]6 [DB]6 | .[E,CE]6 [Cc]6 | c2 c2 c2 A2 A2 F2 | A3 G F2 G6 | .E6 z6 | c2 c3 B [CA]4 A2 | %11
w: ||||||
 A2 B2 c2 =E2- [E-A]3 [EG] | F12 | z6 .[Fd]6 | c2 c2 c2 .[=DA_c]6 | c>c c3 c A>A A4 | [Ec]12 |] %17
w: ||||||
V:2
 [E,C]6- | [E,C]6 |[M:6/4][K:treble] D6 z6 | F6 z6 | x12 | x12 | x12 | [CG]6 .C6 | x12 | [E,C]12 | %10
 D6 z6 | z6 .[B,G]6 | x12 | E2 F2 G2 G2- [G-c]2 [G_c]2 | x12 | [EA]6 z6 | x12 |] %17
V:3
 z2 F2 A2 | B2 c2 e2 |[M:6/4][K:bass] [A,,E,G,]6 [A,,E,]6 | [F,C]2- [F,-B,C]2 [F,C]2 z2 D4 | %4
 [C,F,C]4 C,2 F,6 | z2[K:treble] F2 G2[K:bass] [E,,E,]6 | z2[K:treble] F2 A2[K:bass] [E,,E,]6 | %7
 [=E,,=E,]6 z4 A,2 | [D,F,_C]6 [C,=E,=C]6 | z2[K:treble] F2 A2 B2 c2 e2 | [A,,E,G,]6 .[A,,E,]6 | %11
 [CF]2- [G,C-F-]2 [A,CF]2[K:bass] z2 C3 B, | [F,A,C]12 | %13
 [E,D]2- [E,-A,D-]2 [E,B,D]2 z2[K:treble] E2 =D2 | [A,EA]6 =E,4 _c2 | E,6 F2- [D,DF]4 | %16
 [A,,A,]12 |] %17
V:4
 A,,6- | A,,6 |[M:6/4][K:bass] x12 | .A,6 [B,,F,]6 | x12 | G,,6[K:treble][K:bass] z6 | %6
 A,,6[K:treble][K:bass] z6 | z6 [F,,F,]6 | x12 | A,,12[K:treble] | x12 | .F,6[K:bass] C,6 | x12 | %13
 .G,6 E,6[K:treble] | x12 | z6 .[F,C]6 | x12 |] %17

